X: 21142
T: Kate And Rose's
R: reel
M: 4/4
K: Ddorian
G~E3 BEGB|egfg edBA|G~E3 BEGE|~F2 DF ADBA|
G~E3 BEGB|egfg edBA|FGdG eGdG|EFFG FED2:|
K:E
g~e3 geae|geef gaba|geef gfec|dB~B2 defa|
g~e3 geae|geef gabc|cdad bdad|Bccd cBA2:|

